public/static/img/bank/card_type_b.svg

<svg width="34" height="34" viewBox="0 0 34 34" fill="none" xmlns="http://www.w3.org/2000/svg">
<g clip-path="url(#clip0_6288_46256)">
<path d="M3.49953 16.943L3.61564 15.5636L3.73192 14.3002L4.07501 12.9208L4.5352 11.7736L5.10929 10.5093L5.79948 9.47521L6.1434 8.90079L6.6024 8.4418L7.40887 7.40851L8.44314 6.6034L9.47623 5.80032L10.6222 5.10996L11.7728 4.53468L13.036 4.07449L14.2993 3.7316L14.9895 3.61532L15.6775 3.50041H18.4364L19.6997 3.73143L21.0779 4.07432L22.2271 4.53452L23.4915 5.10979L24.5248 5.80015L25.0989 6.14407L25.5579 6.60307L26.5923 7.40818L27.3954 8.44146L28.1995 9.47487L28.8887 10.509L29.465 11.7733L29.9242 12.9205L30.2693 14.2998L30.3832 14.8739L30.4981 15.5633V18.321L30.2691 19.6993L29.924 20.9637L29.4648 22.2257L28.8885 23.3753L28.1993 24.5258L27.8543 25.0986L27.3953 25.5588L26.5922 26.4771L25.5577 27.3959L24.5246 28.2002L23.4914 28.8896L22.2269 29.4648L21.0777 29.9247L19.6995 30.2686L19.1255 30.384H18.4363L17.7459 30.4989H17.0557L15.6775 30.384L14.2993 30.2686L13.036 29.9247L11.7728 29.4648L10.6222 28.8896L9.47623 28.2002L8.90115 27.8553L8.44314 27.3959L7.40887 26.4771L6.60236 25.5588L5.79931 24.5258L5.10909 23.3753L4.535 22.2257L4.07481 20.9637L3.73175 19.6993L3.61548 19.01V18.3208L3.49937 17.6317V16.943H3.49953ZM0.169922 16.943L0.286033 18.6663L0.400086 19.5855L0.513973 20.3897L0.974035 21.9979L1.20317 22.8012L1.54828 23.4905L1.8934 24.2936L2.23848 24.985L3.04053 26.362L3.49973 27.0524L4.07501 27.7403L5.10929 28.8901L5.6832 29.4653L6.25967 29.9252L6.94884 30.4995L7.63804 30.9585L8.32617 31.4175L9.0164 31.7627L10.5097 32.4517L12.0031 33.026L12.8072 33.2562L13.6101 33.4848L14.4153 33.6011L15.3334 33.7162L17.0557 33.8291L18.7803 33.7162L19.5844 33.6011L20.3887 33.4848L21.9971 33.0258L22.8001 32.7957L23.6053 32.4517L24.2934 32.1078L24.9838 31.7629L26.4761 30.9586L27.0513 30.4996L27.7405 29.9254L28.8887 28.8902L29.465 28.3158L30.0391 27.7405L30.4981 27.0525L30.9573 26.3622L31.4163 25.6732L31.7624 24.9852L32.5666 23.4907L33.1407 21.9983L33.2546 21.1932L33.4848 20.3901L33.5998 19.5858L33.7146 18.6666L33.8299 16.943L33.7148 15.2182L33.5999 14.4163L33.485 13.61L33.1409 12.0026L32.7958 11.1985L32.5668 10.3942L32.2217 9.70607L31.7625 9.01707L30.9574 7.5226L30.4983 6.94868L30.0393 6.25932L28.8889 5.10996L28.3149 4.53468L27.7409 3.96077L27.0517 3.50057L26.4764 3.04157L25.7884 2.58257L24.9843 2.23935L23.6059 1.43304L21.9978 0.858963L21.1945 0.629795L20.3894 0.514847L19.5851 0.398567L18.781 0.284847L17.0564 0.170628L15.3341 0.284847L14.4159 0.398567L13.6108 0.514847L12.0034 0.858765L11.1982 1.20371L10.5102 1.43285L9.70606 1.77796L9.0169 2.23915L7.63853 3.0414L6.94934 3.50041L6.26017 3.9606L5.10978 5.10979L4.5357 5.68388L4.07551 6.25915L3.50023 6.94852L3.04103 7.52243L2.58206 8.21279L2.23901 9.0169L1.54878 10.3941L0.974699 12.0026L0.745896 12.8077L0.51467 13.61L0.400783 14.4163L0.286697 15.2182L0.169922 16.943ZM26.4761 15.7926V8.32688H18.2063V10.7393H23.8334V13.4959H18.2063V20.9639H23.8334V23.4906H18.2063V25.9029H26.4761V18.4365H20.8489V15.9099H26.4761V15.7926ZM7.52156 15.7926V8.32688H15.7924V10.7393H10.1642V13.4959H15.7924V20.9639H10.1642V23.4906H15.7924V25.9029H7.52156V18.4365H13.1508V15.9099H7.52156V15.7926Z" fill="#E50012"/>
</g>
<defs>
<clipPath id="clip0_6288_46256">
<rect width="34" height="34" fill="white" transform="matrix(1 0 0 -1 0 34)"/>
</clipPath>
</defs>
</svg>

<svg width="34" height="34" fill="none" xmlns="http://www.w3.org/2000/svg"><g clip-path="url(#a)"><path d="m3.5 16.943.116-1.38.116-1.263.343-1.38.46-1.146.574-1.265.69-1.034.344-.574.46-.46.806-1.032 1.034-.806L9.476 5.8l1.146-.69 1.15-.575 1.264-.46 1.263-.343.69-.117.688-.115h2.76l1.263.231 1.378.343 1.15.46 1.263.576 1.034.69.574.344.459.46 1.034.804.803 1.033.805 1.034.689 1.034.576 1.264.46 1.148.344 1.379.114.574.115.69v2.757l-.229 1.378-.345 1.265-.46 1.262-.575 1.15-.69 1.15-.345.573-.459.46-.803.918-1.034.919-1.033.804-1.034.69-1.264.575-1.15.46-1.378.344-.574.115h-.689l-.69.115h-.69l-1.379-.115-1.378-.115-1.263-.344-1.263-.46-1.15-.575-1.147-.69-.575-.345-.458-.46-1.034-.918-.807-.918-.803-1.033-.69-1.15-.574-1.15-.46-1.262-.343-1.265-.117-.689v-.69l-.116-.688v-.689Zm-3.33 0 .116 1.723.114.92.114.804.46 1.608.23.803.344.69.345.803.345.691.803 1.377.459.69.575.688 1.034 1.15.574.575.577.46.689.575.689.459.688.459.69.345 1.494.689 1.493.574.804.23.803.229.805.116.918.115 1.723.113 1.724-.113.804-.115.805-.116 1.608-.46.803-.23.805-.343.688-.344.69-.345 1.493-.804.575-.46.69-.574 1.148-1.035.576-.574.574-.575.46-.689.458-.69.46-.689.345-.688.805-1.494.574-1.493.114-.805.23-.803.115-.804.115-.92.115-1.723-.115-1.725-.115-.802-.115-.806-.344-1.607-.345-.805-.23-.804-.344-.688-.46-.689-.805-1.494-.459-.574-.459-.69-1.15-1.149-.574-.575-.574-.574-.69-.46-.575-.46-.688-.458-.804-.344-1.378-.806-1.608-.574-.803-.23-.806-.114-.804-.116-.804-.114L17.056.17l-1.722.114-.918.114-.805.116-1.608.344-.805.345-.688.229-.804.345-.69.461-1.377.802-.69.46-.689.46-1.15 1.15-.574.574-.46.575-.576.69-.459.573-.459.69-.343.805-.69 1.377-.574 1.609-.23.805-.23.802-.114.806-.114.802-.117 1.725Zm26.306-1.15V8.327h-8.27v2.412h5.627v2.757h-5.627v7.468h5.627v2.527h-5.627v2.412h8.27v-7.466H20.85V15.91h5.627v-.117Zm-18.954 0V8.327h8.27v2.412h-5.628v2.757h5.628v7.468h-5.628v2.527h5.628v2.412h-8.27v-7.466h5.629V15.91H7.52v-.117Z" fill="#E50012"/></g><defs><clipPath id="a"><path fill="#fff" transform="matrix(1 0 0 -1 0 34)" d="M0 0h34v34H0z"/></clipPath></defs></svg>
